X: 1
T: Iltat\"ahti [Fm]
T: Evening Star
C: S\"av. Onni Laihanen
C: San. M Maja
Z: 2007 John Chambers <jc@trillian.mit.edu>
S: copy of printed page of unknown origin
M: 2/4
L: 1/16
K: Fm
CD \
| "Fm"CF/F/FA/A/ Ac/c/cA | c2kc2- cCFA \
| cc/c/cd c=B_BA | "C7"G2G2- GC=EG |
| BB/B/BB BdcB | "Fm"AA/A/AA AcBA \
| "G7"GG/G/ GG GA=A=B | "C7"cc/c/ cd c4 |
| "Fm"CF/F/FA/A/ Ac/c/cA | c2kc2- cc=Bc \
| "F7"FF/F/F_G F=E_E=D | "Bbm"_D2 D6 |
|: "Bbm"[b2d2F2]z2 z4 | "Fm"[a2c2F2]z2 z4 \
| "C7"[g2c2=E2]z2 z4 |1 "Fm"f4 z4 :|2 "Fm"f2 ("C7"[c2B2=E2] "Fm"[f2c2A2F2]) C2 \
|: "Fm"[c8-A8-] | [cA]CFA cd2c \
| "C7"BG2A B4- | B2 C2D2C2 |
| "Fm"[A8-F8-] | [AF][G=E][AF][BG] [cA][B2G2][AF] \
| "C7"[G8-=E8-] | [G2E2] c2d2c2 \
| "F7"=AF2G A4- | A2 [_G2E2][F2D2][E2C2] |
| "Bbm"[D8-B,8-] | [DB,] F2B2d2 \
| "Fm"cA2F A2F2 | "C7"BG2=E G2E2 \
|1 "Fm"F6 "Bbm"D2 | "C7"C6 C2 :|2 F2z2 z4 | z2 "C7"([c2B2=E2] "Fm"[f2c2A2F2]) |]
%%sep 1 1 500
%%sep 1 1 500
